flaticon/constructions/plug-5.svg

<svg xmlns="http://www.w3.org/2000/svg" width="32" height="32" viewBox="0 0 24 24">
    <path d="M 19.601562 6.398438 C 19.601562 5.71875 19.078125 5.199219 18.398438 5.199219 L 17.199219 5.199219 L 17.199219 1.199219 C 17.199219 0.519531 16.679688 0 16 0 C 15.320312 0 14.800781 0.519531 14.800781 1.199219 L 14.800781 5.199219 L 9.199219 5.199219 L 9.199219 1.199219 C 9.199219 0.519531 8.679688 0 8 0 C 7.320312 0 6.800781 0.519531 6.800781 1.199219 L 6.800781 5.199219 L 5.601562 5.199219 C 4.921875 5.199219 4.398438 5.71875 4.398438 6.398438 C 4.398438 6.9375 4.726562 7.375 5.199219 7.535156 L 5.199219 14.800781 C 5.199219 16.800781 6.800781 18.398438 8.800781 18.398438 L 10 18.398438 L 10 20 C 10 20.238281 10.160156 20.398438 10.398438 20.398438 L 10.800781 20.398438 L 10.800781 22 C 10.800781 22.238281 10.960938 22.398438 11.199219 22.398438 L 11.601562 22.398438 L 11.601562 23.601562 C 11.601562 23.839844 11.761719 24 12 24 C 12.238281 24 12.398438 23.839844 12.398438 23.601562 L 12.398438 22.398438 L 12.800781 22.398438 C 13.039062 22.398438 13.199219 22.238281 13.199219 22 L 13.199219 20.398438 L 13.601562 20.398438 C 13.839844 20.398438 14 20.238281 14 20 L 14 18.398438 L 15.199219 18.398438 C 17.199219 18.398438 18.800781 16.800781 18.800781 14.800781 L 18.800781 7.535156 C 19.273438 7.375 19.601562 6.9375 19.601562 6.398438 Z M 15.601562 1.199219 C 15.601562 0.960938 15.761719 0.800781 16 0.800781 C 16.238281 0.800781 16.398438 0.960938 16.398438 1.199219 L 16.398438 5.199219 L 15.601562 5.199219 Z M 7.601562 1.199219 C 7.601562 1 7.761719 0.800781 8 0.800781 C 8.238281 0.800781 8.398438 0.960938 8.398438 1.199219 L 8.398438 5.199219 L 7.601562 5.199219 Z M 12.398438 21.601562 L 11.601562 21.601562 L 11.601562 20.398438 L 12.398438 20.398438 Z M 13.199219 19.601562 L 10.800781 19.601562 L 10.800781 18.398438 L 13.199219 18.398438 Z M 18 14.800781 C 18 16.359375 16.761719 17.601562 15.199219 17.601562 L 8.800781 17.601562 C 7.238281 17.601562 6 16.359375 6 14.800781 L 6 7.601562 L 18 7.601562 Z M 18.398438 6.800781 L 5.601562 6.800781 C 5.359375 6.800781 5.199219 6.640625 5.199219 6.398438 C 5.199219 6.160156 5.359375 6 5.601562 6 L 18.398438 6 C 18.640625 6 18.800781 6.160156 18.800781 6.398438 C 18.800781 6.640625 18.640625 6.800781 18.398438 6.800781 Z M 18.398438 6.800781"/>
    <path d="M 10.398438 12.800781 L 12.640625 12.800781 L 10.519531 14.921875 C 10.359375 15.078125 10.359375 15.320312 10.519531 15.480469 C 10.601562 15.558594 10.679688 15.601562 10.800781 15.601562 C 10.921875 15.601562 11 15.558594 11.078125 15.480469 L 13.878906 12.679688 C 14 12.558594 14.039062 12.398438 13.960938 12.238281 C 13.921875 12.078125 13.761719 12 13.601562 12 L 11.359375 12 L 13.480469 9.878906 C 13.640625 9.71875 13.640625 9.480469 13.480469 9.320312 C 13.320312 9.160156 13.078125 9.160156 12.921875 9.320312 L 10.121094 12.121094 C 10 12.238281 10 12.398438 10.039062 12.558594 C 10.078125 12.71875 10.238281 12.800781 10.398438 12.800781 Z M 10.398438 12.800781"/>
</svg>

<svg xmlns="http://www.w3.org/2000/svg" width="32" height="32" viewBox="0 0 24 24">
    <path d="M19.602 6.398c0-.68-.524-1.199-1.204-1.199H17.2v-4C17.2.52 16.68 0 16 0c-.68 0-1.2.52-1.2 1.2v4H9.2v-4C9.2.52 8.68 0 8 0c-.68 0-1.2.52-1.2 1.2v4H5.603c-.68 0-1.204.519-1.204 1.198 0 .54.329.977.801 1.137v7.266c0 2 1.602 3.597 3.602 3.597H10V20c0 .238.16.398.398.398h.403V22c0 .238.16.398.398.398h.403v1.204c0 .238.16.398.398.398.238 0 .398-.16.398-.398v-1.204h.403c.238 0 .398-.16.398-.398v-1.602h.403c.238 0 .398-.16.398-.398v-1.602h1.2c2 0 3.6-1.597 3.6-3.597V7.535c.473-.16.802-.598.802-1.137zm-4-5.199c0-.238.16-.398.398-.398.238 0 .398.16.398.398v4h-.796zm-8 0A.4.4 0 0 1 8 .801c.238 0 .398.16.398.398v4h-.796zm4.796 20.403h-.796v-1.204h.796zm.801-2h-2.398v-1.204h2.398zM18 14.8c0 1.558-1.238 2.8-2.8 2.8H8.8a2.783 2.783 0 0 1-2.8-2.8V7.6h12zm.398-8H5.602c-.243 0-.403-.16-.403-.403 0-.238.16-.398.403-.398h12.796c.243 0 .403.16.403.398 0 .243-.16.403-.403.403zm0 0"/>
    <path d="M10.398 12.8h2.243l-2.121 2.122a.385.385 0 0 0 0 .558c.082.079.16.122.28.122a.36.36 0 0 0 .278-.122l2.8-2.8c.122-.121.161-.282.083-.442-.04-.16-.2-.238-.36-.238H11.36l2.121-2.121a.385.385 0 0 0 0-.559.385.385 0 0 0-.558 0l-2.8 2.801c-.122.117-.122.277-.083.438.04.16.2.242.36.242zm0 0"/>
</svg>
